!!!COM: Beethoven
!!!OTL: 32 Variationen fur das pianoforte
!!!Variation: Variation 1 a
**function	**harm	**kern	**kern
*	*	*clefF4	*clefG2
*	*	*k[b-e-a-]	*k[b-e-a-]
*M3/4	*M3/4	*M3/4	*M3/4
*c:	*c:	*c:	*c:
=9	=9	=9	=9
2.T	2.i	4r	16GLL
.	.	.	16c
.	.	.	16e-
.	.	.	16gJJ
.	.	4r	16ccLL
.	.	.	16ee-
.	.	.	16gg
.	.	.	16ggJJ
*	*	*clefG2	*
.	.	8c 8e- 8g	16ggLL
.	.	.	16gg
.	.	8r	16gg
.	.	.	16ggJJ
=10	=10	=10	=10
2.T	2.Vb	8B 8d 8g	16ggLL
.	.	.	16dd
.	.	8r	16b
.	.	.	16gJJ
.	.	4r	16dLL
.	.	.	16B
.	.	.	16G
.	.	.	16GJJ
*	*	*clefF4	*
.	.	8BB 8D	16GLL
.	.	.	16G
.	.	8r	16G
.	.	.	16GJJ
=11	=11	=11	=11
2.T	2.viioD7c/IV	8BB- 8D- 8E	16GLL
.	.	.	16B-
.	.	8r	16d-
.	.	.	16eJJ
.	.	4r	16gLL
.	.	.	16b-
.	.	.	16dd-
.	.	.	16eeJJ
*	*	*clefG2	*
.	.	8B- 8d- 8g	16eeLL
.	.	.	16ee
.	.	8r	16ee
.	.	.	16eeJJ
=12	=12	=12	=12
2.P	2.IVb	8A 8c 8f	16ffLL
.	.	.	16cc
.	.	8r	16a
.	.	.	16fJJ
*	*	*clefF4	*
.	.	4r	16cLL
.	.	.	16A
.	.	.	16F
.	.	.	16FJJ
.	.	8AA 8C	16FLL
.	.	.	16F
.	.	8r	16F
.	.	.	16FJJ
=13	=13	=13	=13
2.P	2.Gn	8AA- 8C	16F#LL
.	.	.	16c
.	.	8r	16e-
.	.	.	16f#JJ
.	.	4r	16ccLL
.	.	.	16ee-
.	.	.	16ff#
.	.	.	16ff#JJ
*	*	*clefG2	*
.	.	8A- 8c 8e- 8f#	16ff#LL
.	.	.	16ff#
.	.	8r	16ff#
.	.	.	16ff#JJ
=14	=14	=14	=14
4D	4Cc	8G 8c 8e- 8g	16ggLL
.	.	.	16ee-
.	.	8r	16cc
.	.	.	16gJJ
*	*	*clefF4	*
2D	2iv	8F 8A- 8c 8f	16a-LL
.	.	.	16cc
.	.	8r	16ff
.	.	.	16aa-JJ
.	.	4r	16cccLL
.	.	.	16fff
.	.	.	16aaa-
.	.	.	16fffJJ
=15	=15	=15	=15
2D	2iv	4r	16cccLL
.	.	.	16aa-
.	.	.	16ff
.	.	.	16ccJJ
.	.	8.r	16a-LL
.	.	.	16f
.	.	.	16c
.	.	16FF	16A-JJ
4D	4V	8GG	16GLL
.	.	.	16B
.	.	8r	16d
.	.	.	16gJJ
=16	=16	=16	=16
2.T	2.i	8C	16e-LL
.	.	.	16c
.	.	8r	16G
.	.	.	16E-JJ
.	.	16GLL	4r
.	.	16E-	.
.	.	16C	.
.	.	16GGJJ	.
.	.	16CLL	4r
.	.	16E-	.
.	.	16G	.
.	.	16E-JJ	.
*-	*-	*-	*-
